packages/icons/svg/Universe_Kitchen2_48px.svg

<svg xmlns="http://www.w3.org/2000/svg" viewBox="0 0 48 48"><path d="M42 4H6a2 2 0 00-2 2v36a2 2 0 002 2h36a2 2 0 002-2V6a2 2 0 00-2-2zm-1 3v5H7V7zM7 41V15h34v26z"/><path d="M35 21H13a2 2 0 00-2 2v12a2 2 0 002 2h22a2 2 0 002-2V23a2 2 0 00-2-2zm0 14H13V23h22zM36 17H12a1 1 0 000 2h24a1 1 0 000-2zM22 10.5h4a1 1 0 000-2h-4a1 1 0 000 2z"/><circle cx="11" cy="9.5" r="1"/><circle cx="17" cy="9.5" r="1"/><circle cx="31" cy="9.5" r="1"/><circle cx="37" cy="9.5" r="1"/></svg>

<svg xmlns="http://www.w3.org/2000/svg" viewBox="0 0 48 48"><defs></defs><g id="Icon"><path  d="M42,4H6A2,2,0,0,0,4,6V42a2,2,0,0,0,2,2H42a2,2,0,0,0,2-2V6A2,2,0,0,0,42,4ZM41,7v5H7V7ZM7,41V15H41V41Z"/><path  d="M35,21H13a2,2,0,0,0-2,2V35a2,2,0,0,0,2,2H35a2,2,0,0,0,2-2V23A2,2,0,0,0,35,21Zm0,14H13V23H35Z"/><path  d="M36,17H12a1,1,0,0,0,0,2H36a1,1,0,0,0,0-2Z"/><path  d="M22,10.5h4a1,1,0,0,0,0-2H22a1,1,0,0,0,0,2Z"/><circle  cx="11" cy="9.5" r="1"/><circle  cx="17" cy="9.5" r="1"/><circle  cx="31" cy="9.5" r="1"/><circle  cx="37" cy="9.5" r="1"/></g></svg>
